!!!!SEGMENT: pl-kk--kk-i-382--095-006_richling--msza-na-3-glosy-agnus.krn
!!!cenid: 18xx:1618
!!!COM: Richling
!!!COM-rism: pe50045950
!!!CDT:
!!!CNT:
!!!OTL: Msza na 3 głosy – Agnus
!!!PDT:
!!!AGN: Sacred; Mass
!!!SMS-siglum: PL-Kk
!!!SMS-shelfmark: Kk.I.382
!!!NIFC-rismID: 1001142973
!!!URL-scan: http://repozytorium.nifc.pl/skany/pl-kk-nut--i-382
!!!ONB-nifc: S/T1 od 0065, A/B1 od 0208, B2 od 0282. Części Mszy: 1. Requiem, 2. Dies irae, 3. Offertorium, 4. Sanctus, 5. Benedictus, 6. Agnus, 7. Graduale, 8. Offertorium
!!!SMS-variant:
!!!SMS-altvar:
**kern	**text	**kern	**text	**kern	**text
*part3	*part3	*part2	*part2	*part1	*part1
*staff3	*staff3	*staff2	*staff2	*staff1	*staff1
*I"Basso II	*	*I"Alto. vel Basso I	*	*I"Soprano vel Tenore I.	*
*I'B II	*	*I'A/B I	*	*I'S/T I	*
*clefF4	*	*clefF4	*	*clefG2	*
*	*	*ITrd7c12	*	*ITrd7c12	*
*k[]	*	*k[]	*	*k[]	*
*M4/4	*	*M4/4	*	*M4/4	*
*met(c)	*	*met(c)	*	*met(c)	*
=1	=1	=1	=1	=1	=1
*all/left	*	*all/left	*	*all/left	*
*all\right	*	*all\right	*	*all\right	*
*	*	*2\right	*	*2\right	*
*	*	*^	*	*	*
*	*	*cue	*	*	*	*
!	!	!LO:TX:t=P:problem:1 warstwa ołówkiem	!	!	!	!
!LO:TX:a:t=Adagio	!	!LO:TX:a:t=Adagio	!	!	!LO:TX:a:t=Adagio	!
2.AA/	A-	2.C/	2EE\	A-	2.c\	Ag-
.	.	.	(>4FF\	.	.	.
4AA/	-gnus	4C/	4EE\)	-gnus	4c\	-nus
*	*	*Xcue	*	*	*	*
*	*	*v	*v	*	*	*
=2	=2	=2	=2	=2	=2
*2\right	*	*	*	*	*
2.D\	Dei	2FF\	De-	(4c\	De-
.	.	.	.	4B\)	.
.	.	4FF\	-i	4B-X\	-i
4D\	qui	4FF\	qui	4A/	qui
=3	=3	=3	=3	=3	=3
4D\	tol-	4FF\	tol-	4G#X/	tol-
8D\	-lis	8FF\	-lis	8G#/	-lis
8D\	pec-	8FF\	pec-	8G#/	pec-
4C#X/	-ca-	4EE\	-ca-	4A/	-ca-
4Cn/	-ta	4EE\	-ta	4A#X/	-ta
=4	=4	=4	=4	=4	=4
2BB/	mun-	(4DD#X\	mun-	2B\	mun-
.	.	4AA\)	.	.	.
!	!	!LO:TX:t=P:problem:dopisek ołówkiem: Rychling	!	!	!
4E\	-di	4GG#X\	-di	4B\	-di
8E\	do-	4r	.	4r	.
8E\	-na	.	.	.	.
!LO:LB:g=original	!	!LO:LB:g=original	!	!	!
=5	=5	=5	=5	=5	=5
2GG#X/	e-	4r	.	4r	.
.	.	8EE\	do-	8B\	do-
.	.	8EE\	-na	8B\	-na
!	!	!	!	!LO:LB:g=original	!
2AA/	-is	4EE\	e-	4c\	e-
.	.	4EE\	-is	4c\	-is
=6	=6	=6	=6	=6	=6
4.F\	do-	4r	.	4r	.
.	.	8AA\	do-	8c\	do-
8F\	-na	8AA\	-na	8c\	-na
4F\	e-	4AA\	e-	4d\	e-
4F\	-is	4AA\	-is	4c\	-is
=7	=7	=7	=7	=7	=7
2D\	re-	2AA\	re-	[2B\	re-
2E\	-qui-	2GG#X\	-qui-	4B\]	.
.	.	.	.	4e\	-qui-
=8	=8	=8	=8	=8	=8
2AA/	-em	2AA\	-em	2c\	-em
2r	.	2r	.	2r	.
=9	=9	=9	=9	=9	=9
2F\	A-	2AA\	A-	(2c\	Ag-
(4F\	-gnus	2AA\	-gnus	4d\)	.
4E\)	.	.	.	4e\	-nus
=10	=10	=10	=10	=10	=10
2D\	De-	2AA\	De-	2f\	De-
4D\	-i	4FF\	-i	4A/	-i,
4D\	qui	4FF\	qui	4A/	qui
!LO:LB:g=original	!	!LO:LB:g=original	!	!LO:LB:g=original	!
=11	=11	=11	=11	=11	=11
2D\	tol-	2FF\	tol-	(4B-X\	tol-
.	.	.	.	4A/)	.
4D\	-lis	4FF\	-lis	4B-\	-lis
4C/	pec-	4FF\	pec-	4c\	pec-
=12	=12	=12	=12	=12	=12
2BB-X/	-ca-	2FF\	-ca-	2d\	-ca-
2BB-/	-ta	2DD\	-ta	2F/	-ta
=13	=13	=13	=13	=13	=13
1BB-X	mun-	1DD	mun-	(2G/	mun-
.	.	.	.	4F/	.
.	.	.	.	4G/)	.
=14	=14	=14	=14	=14	=14
2AA/	-di	2CC#X/	-di	2A/	-di
4AA/	do-	4CC#/	Do-	4E/	do-
4AA/	-na	4CC#/	-na	4E/	-na
=15	=15	=15	=15	=15	=15
2AA/	e-	2EE\	e-	2c#X\	e-
2C#X/	-is	2EE\	-is	2A/	-is
=16	=16	=16	=16	=16	=16
2.C#X/	re-	4AA\	re-	2.e\	re-
.	.	8BB-X\L	.	.	.
.	.	8AA\J	.	.	.
.	.	4GG\	.	.	.
4D\	-qui-	4FF\	-qui-	4d\	-qui-
!	!	!LO:PB:g=original	!	!	!
=17	=17	=17	=17	=17	=17
2AA/	-em	2EE\	-em	2c#X\	-em
!	!	!	!	!LO:LB:g=original	!
4AA/	do-	4CC#X/	do-	4E/	do-
4AA/	-na	4CC#/	-na	4E/	-na
!LO:LB:g=original	!	!	!	!	!
=18	=18	=18	=18	=18	=18
2.D\	e-	(4DD\	e-	(>4F/	e-
.	.	4FF\)	.	4A/)	.
.	.	2FF\	-is	[>2A/	-is
4Cn/	-is	.	.	.	.
=19	=19	=19	=19	=19	=19
(>2BB/	re-	(2FF\	re-	4A/]	.
.	.	.	.	4G#X/	re-
4C/)	.	4EE\)	.	4A/	.
4AA/	-qui-	4FF#X\	-qui-	4c\	-qui-
=20	=20	=20	=20	=20	=20
1E	-em	1GG#X	-em.	1B	-em
=21||	=21||	=21||	=21||	=21||	=21||
!LO:TX:a:t=1	!	!	!	!	!
1r	.	2r	.	2r	.
.	.	4GG#X\	Lux	4B\	Lux
.	.	4GG#\	e-	4B\	e-
=22	=22	=22	=22	=22	=22
2r	.	2AA\	-ter-	2c\	-ter-
4A\	Lux	2C\	-na	2e\	-na
4A\	e-	.	.	.	.
!	!	!LO:LB:g=original	!	!	!
=23	=23	=23	=23	=23	=23
2.D\	-ter-	(<4C\	lu-	2.f\	lu-
.	.	4BB\)	.	.	.
.	.	[2AA\	-ce-	.	.
4F\	-na	.	.	4d\	-ce-
=24	=24	=24	=24	=24	=24
2E\	lu-	4AA\]	.	[2.B\	-at
.	.	8GG#X\L	.	.	.
.	.	8FF#X\J	.	.	.
4E\	-ce-	4GG#\	-at,	.	.
4E\	-at	4GG#\	.	4B\]	.
!LO:LB:g=original	!	!	!	!LO:LB:g=original	!
=25	=25	=25	=25	=25	=25
(4A\	e-	[1AA	e-	[1c	e-
4G\	.	.	.	.	.
4F#X\	.	.	.	.	.
4E\)	.	.	.	.	.
=26	=26	=26	=26	=26	=26
2D#X\	.	2AA\]	.	4c\]	.
.	.	.	.	4B\	-is
2E\	is	2GG\	-is	4r	.
.	.	.	.	(4c\	Do-
=27	=27	=27	=27	=27	=27
(4C/	Do-	2GG\	Do-	2A/)	.
4C#X/	.	.	.	.	.
4D\	.	2FF#X\	-mi-	2A/	-mi-
4Cn/)	.	.	.	.	.
=28	=28	=28	=28	=28	=28
2.BB/	mi-	(8GG\L	-ne	2.d\	-ne
.	.	8AA\	.	.	.
.	.	8GG\	.	.	.
.	.	8FF#X\J	.	.	.
.	.	4GG\)	.	.	.
4GG/	-ne	4DD\	Cum	4B\	Cum
!	!	!LO:LB:g=original	!	!	!
=29	=29	=29	=29	=29	=29
2.C/	Sanc-	(8EE\L	Sanc-	2.G/	San-
.	.	8DD#X\	.	.	.
.	.	8EE\	.	.	.
.	.	8FFn\J	.	.	.
.	.	4EE\)	.	.	.
4AA/	-tis	4EE\	-tis	4c\	-ctis
!LO:LB:g=original	!	!	!	!	!
=30	=30	=30	=30	=30	=30
(8A\L	tu-	2.C\	tu-	2.e\	tu-
8E\	.	.	.	.	.
8C\	.	.	.	.	.
8E\J)	.	.	.	.	.
4A\	-is	.	.	.	.
4r	.	4AA\	-is	4c\	-is
=31	=31	=31	=31	=31	=31
(8D\L	in	2.FF#X\	in	2.A/	in
8E\	.	.	.	.	.
8D\	.	.	.	.	.
8C#X\J)	.	.	.	.	.
4D\	ae-	.	.	.	.
4r	.	4FF#\	ae-	4A/	ae-
=32	=32	=32	=32	=32	=32
(>4GG/	-ter-	2.GG\	-ter-	2.B\	-ter-
4BB/)	.	.	.	.	.
(4E\	-num	.	.	.	.
4D\)	.	4FF#X\	-num	4B\	-num
!	!	!	!	!LO:LB:g=original	!
=33	=33	=33	=33	=33	=33
(4C/	qui-	(4EE\	qui-	2.g\	qui-
4E\)	.	4C\)	.	.	.
[2G\	-a	2BB\	-a	.	.
.	.	.	.	4e\	-a
!LO:LB:g=original	!	!	!	!	!
=34	=34	=34	=34	=34	=34
!LO:TX:t=P:problem:brak zakończenia ligatury	!	!	!	!	!
4G\]	pi-	1AA	pi-	1c	pi-
(8F#X\L	-us	.	.	.	.
8E\J)	.	.	.	.	.
(4F#\	es	.	.	.	.
4D\)	.	.	.	.	.
=35	=35	=35	=35	=35	=35
!	!	!	!	!LO:N:vis=1.	!
(4G\	qui-	1GG	-us	1B	-us
4F#X\)	.	.	.	.	.
(4E\	-a	.	.	.	.
4D\)	.	.	.	.	.
!	!	!LO:LB:g=original	!	!	!
=36	=36	=36	=36	=36	=36
2.C#X/	pi-	(2.GG\	es	(4B\	est
.	.	.	.	4B-X\	.
.	.	.	.	2A/	.
4D\	-us	4FF#X\	.	.	.
=37	=37	=37	=37	=37	=37
2.BB/	es	2.FFn\)	.	4A/	.
.	.	.	.	4A-X/)	.
.	.	.	.	2G/	Cum
4C/	Cum	4EE\	Cum	.	.
=38	=38	=38	=38	=38	=38
2AA/	San-	2EE\	Sanc-	2.c\	san-
2AA/	-ctis	(4FF\	-tis	.	.
.	.	4EE\)	.	4c\	-ctis
=39	=39	=39	=39	=39	=39
2AA/	tu-	2DD#X\	tu-	2c\	tu-
2GG#X/	-is	[2EE\	-is	2B\	-is
!LO:LB:g=original	!	!	!	!	!
=40	=40	=40	=40	=40	=40
(<4GG#X/	in	(4EE\]	in	2.d\	in
4BB/	.	4FF#X\)	.	.	.
2E\)	ae-	2GG#X\	ae-	.	.
!	!	!	!	!LO:N:xstem:vis=4	!
.	.	.	.	4d\	ae-
!	!	!	!	!LO:PB:g=original	!
=41	=41	=41	=41	=41	=41
2F\	-ter-	2GG#X\	-ter-	2d\	-ter-
2F\	-num	2AA\	-num	2c\	-num
=42	=42	=42	=42	=42	=42
2D\	qui-	[<1AA	qui-	1B	qui-
2D#X\	-a	.	.	.	.
!	!	!LO:LB:g=original	!	!	!
=43	=43	=43	=43	=43	=43
!	!	!LO:TX:t=P:problem:brak zakończenia ligatury	!	!	!
2E\	pi-	2AA\]	.	1B	-a
2E\	-us	2GG#X\	-a	.	.
=44	=44	=44	=44	=44	=44
(4AA/	es	1AA	pi-	1c#X	pi-
4E\)	.	.	.	.	.
4A\	qui-	.	.	.	.
4G\	-a	.	.	.	.
=45	=45	=45	=45	=45	=45
(4F\	pi-	1AA	-us	(2d\	-us
4E\)	.	.	.	.	.
(4D\	-us	.	.	2e\)	.
4C#X/)	.	.	.	.	.
!LO:LB:g=original	!	!	!	!	!
=46	=46	=46	=46	=46	=46
(1D	es	(2AA\	es	(1f	e-
.	.	4BB-X\	.	.	.
.	.	4AA\)	.	.	.
=47	=47	=47	=47	=47	=47
1E	.	(2GG#X\	.	1e)	.
.	.	2D\)	.	.	.
=48	=48	=48	=48	=48	=48
1AA)	.	1C#X	.	1e	-s
==	==	==	==	==	==
*-	*-	*-	*-	*-	*-
!!!system-decoration: [(s1,s2,s3)]
!!!RDF**kern: > = above
!!!RDF**kern: < = below
!!!ENC: Marta Lawrence
!!!END: 2021-03-26
!!!ENC: Krzysztof Stępień
!!!END: 2021-03-06
